snap/Costumes/button4-b.svg

<?xml version="1.0" encoding="UTF-8" standalone="no"?>
<svg
   xmlns:dc="http://purl.org/dc/elements/1.1/"
   xmlns:cc="http://creativecommons.org/ns#"
   xmlns:rdf="http://www.w3.org/1999/02/22-rdf-syntax-ns#"
   xmlns:svg="http://www.w3.org/2000/svg"
   xmlns="http://www.w3.org/2000/svg"
   xmlns:sodipodi="http://sodipodi.sourceforge.net/DTD/sodipodi-0.dtd"
   xmlns:inkscape="http://www.inkscape.org/namespaces/inkscape"
   version="1.1"
   width="73"
   height="60"
   viewBox="13 18 73 60"
   id="svg1335"
   sodipodi:docname="button4-b.svg"
   inkscape:version="0.92.2 5c3e80d, 2017-08-06">
  <metadata
     id="metadata1339">
    <rdf:RDF>
      <cc:Work
         rdf:about="">
        <dc:format>image/svg+xml</dc:format>
        <dc:type
           rdf:resource="http://purl.org/dc/dcmitype/StillImage" />
        <dc:title></dc:title>
      </cc:Work>
    </rdf:RDF>
  </metadata>
  <sodipodi:namedview
     pagecolor="#ffffff"
     bordercolor="#666666"
     borderopacity="1"
     objecttolerance="10"
     gridtolerance="10"
     guidetolerance="10"
     inkscape:pageopacity="0"
     inkscape:pageshadow="2"
     inkscape:window-width="640"
     inkscape:window-height="480"
     id="namedview1337"
     showgrid="false"
     inkscape:zoom="2.5338983"
     inkscape:cx="67"
     inkscape:cy="59"
     inkscape:window-x="-2"
     inkscape:window-y="-2"
     inkscape:window-maximized="0"
     inkscape:current-layer="svg1335" />
  <defs
     id="defs1330">
    <linearGradient
       id="grad_1"
       x1="13.3999"
       y1="68.017601"
       x2="133.6357"
       y2="68.017601"
       gradientUnits="userSpaceOnUse">
      <stop
         offset="0"
         stop-color="#6D6E71"
         id="stop1320" />
      <stop
         offset="1"
         stop-color="#414042"
         id="stop1322" />
    </linearGradient>
    <linearGradient
       id="grad_2"
       x1="73.517601"
       y1="21.6831"
       x2="73.517601"
       y2="114.353"
       gradientUnits="userSpaceOnUse">
      <stop
         offset="0"
         stop-color="#58595B"
         id="stop1325" />
      <stop
         offset="1"
         stop-color="#000000"
         id="stop1327" />
    </linearGradient>
  </defs>
  <!-- Exported by Scratch - http://scratch.mit.edu/ -->
  <g
     id="ID0.597694851923734"
     transform="matrix(0.59873694,0,0,0.59873694,5.9770561,7.7376214)">
    <path
       id="ID0.048198970034718513"
       d="m 129.356,22.913 c -2.741,-2.728 -6.382,-4.229 -10.249,-4.229 -3.899,0 -7.561,1.522 -10.31,4.287 L 50.016,82.072 38.389,70.035 c -2.766,-2.862 -6.479,-4.439 -10.46,-4.439 -3.787,0 -7.373,1.449 -10.097,4.08 -5.767,5.571 -5.927,14.793 -0.358,20.559 l 21.857,22.629 c 0.747,0.773 1.604,1.475 2.509,2.062 0.106,0.07 0.214,0.137 0.322,0.201 l 0.138,0.084 c 0.216,0.131 0.432,0.262 0.627,0.365 2.127,1.162 4.538,1.775 6.972,1.775 10e-4,0 10e-4,0 10e-4,0 3.895,0 7.551,-1.52 10.296,-4.281 l 69.217,-69.596 c 5.652,-5.683 5.627,-14.908 -0.057,-20.561 z"
       style="fill:url(#grad_1)"
       inkscape:connector-curvature="0" />
    <path
       id="ID0.9675217140465975"
       d="m 127.24,25.04 c -4.516,-4.493 -11.821,-4.473 -16.315,0.046 L 49.985,86.358 36.23,72.119 C 31.802,67.535 24.498,67.408 19.916,71.834 15.331,76.262 15.205,83.567 19.632,88.151 l 21.856,22.627 c 0.621,0.643 1.303,1.189 2.021,1.656 0.095,0.062 0.192,0.117 0.289,0.178 0.188,0.113 0.373,0.229 0.565,0.332 4.39,2.396 10.001,1.736 13.704,-1.988 L 127.284,41.36 c 4.495,-4.52 4.476,-11.825 -0.044,-16.32 z"
       style="fill:url(#grad_2)"
       inkscape:connector-curvature="0" />
  </g>
</svg>

<svg version="1.1" width="134" height="118" viewBox="13 18 134 118" xmlns="http://www.w3.org/2000/svg" xmlns:xlink="http://www.w3.org/1999/xlink">
  <defs>
    <linearGradient id="grad_1" x1="13.3999" y1="68.0176" x2="133.6357" y2="68.0176" gradientUnits="userSpaceOnUse">
      <stop offset="0" stop-color="#6D6E71"/>
      <stop offset="1" stop-color="#414042"/>
    </linearGradient>
    <linearGradient id="grad_2" x1="73.5176" y1="21.6831" x2="73.5176" y2="114.353" gradientUnits="userSpaceOnUse">
      <stop offset="0" stop-color="#58595B"/>
      <stop offset="1" stop-color="#000000"/>
    </linearGradient>
  </defs>
  <!-- Exported by Scratch - http://scratch.mit.edu/ -->
  <g id="ID0.597694851923734" transform="matrix(0.5987369418144226, 0, 0, 0.5987369418144226, -7.05, -10.65)">
    <path id="ID0.048198970034718513" fill="url(#grad_1)" d="M 129.356 22.913 C 126.615 20.185 122.974 18.684 119.107 18.684 C 115.208 18.684 111.546 20.206 108.797 22.971 L 50.016 82.072 L 38.389 70.035 C 35.623 67.173 31.910 65.596 27.929 65.596 C 24.142 65.596 20.556 67.045 17.832 69.676 C 12.065 75.247 11.905 84.469 17.474 90.235 L 39.331 112.864 C 40.078 113.637 40.935 114.339 41.840 114.926 C 41.946 114.996 42.054 115.063 42.162 115.127 L 42.300 115.211 C 42.516 115.342 42.732 115.473 42.927 115.576 C 45.054 116.738 47.465 117.351 49.899 117.351 C 49.900 117.351 49.900 117.351 49.900 117.351 C 53.795 117.351 57.451 115.831 60.196 113.070 L 129.413 43.474 C 135.065 37.791 135.040 28.566 129.356 22.913 Z "/>
    <path id="ID0.9675217140465975" fill="url(#grad_2)" d="M 127.240 25.040 C 122.724 20.547 115.419 20.567 110.925 25.086 L 49.985 86.358 L 36.230 72.119 C 31.802 67.535 24.498 67.408 19.916 71.834 C 15.331 76.262 15.205 83.567 19.632 88.151 L 41.488 110.778 C 42.109 111.421 42.791 111.967 43.509 112.434 C 43.604 112.496 43.701 112.551 43.798 112.612 C 43.986 112.725 44.171 112.841 44.363 112.944 C 48.753 115.340 54.364 114.680 58.067 110.956 L 127.284 41.360 C 131.779 36.840 131.760 29.535 127.240 25.040 Z "/>
  </g>
</svg>
